X:417
T:Studentenmarch
S:Brian Peters
Z:Christel van Noort
M:4/4
L:1/8
K:D
FG |: A2 AB A2 AB | AGFE D2 d2 | c2 d2 e2 f2 | edcB AFGA | 
B2 BA BcdB | A2 AB A2 dc | BAGF EDEF | D2 DD DEFE |1 D6 FG :|2 D6 cd || 
|: e2 ef e2 ef | edcB A2 cd | e2 f2 g2 fg | e6 de | 
f2 fg f2 cd | edcd B2 de | f2 g2 f2 d2 | edcd B2 ef | 
gfed edcB | B4 A2 Bc | d2 dc d2 cd | e2 ef e2 de | 
f2 f2 gfed | edcB AFGA | B2 BA Bcdc | 
A2 AB A2 dc | BAGF EDEF | D2 DD DEFE | D6 cd :|| 

